Newaita/actions/24/cm_runterm.svg

<?xml version="1.0" encoding="UTF-8"?>
<svg xmlns="http://www.w3.org/2000/svg" xmlns:xlink="http://www.w3.org/1999/xlink" width="24pt" height="24pt" viewBox="0 0 24 24" version="1.1">
<g id="surface1">
<path style=" stroke:none;fill-rule:nonzero;fill:rgb(25.882354%,25.882354%,25.882354%);fill-opacity:1;" d="M 2.976562 1.179688 C 1.878906 1.179688 0.992188 2.066406 0.992188 3.164062 L 0.992188 21.027344 C 0.992188 22.125 1.878906 23.011719 2.976562 23.011719 L 20.839844 23.011719 C 21.9375 23.011719 22.824219 22.125 22.824219 21.027344 L 22.824219 3.164062 C 22.824219 2.066406 21.9375 1.179688 20.839844 1.179688 Z M 3.472656 2.667969 L 20.339844 2.667969 C 20.890625 2.667969 21.335938 3.109375 21.335938 3.660156 L 21.335938 20.53125 C 21.335938 21.078125 20.890625 21.523438 20.339844 21.523438 L 3.472656 21.523438 C 2.921875 21.523438 2.480469 21.078125 2.480469 20.53125 L 2.480469 3.660156 C 2.480469 3.109375 2.921875 2.667969 3.472656 2.667969 Z M 3.472656 2.667969 "/>
<path style=" stroke:none;fill-rule:nonzero;fill:rgb(47.058824%,56.470591%,61.176473%);fill-opacity:1;" d="M 10.089844 6.761719 C 9.898438 6.761719 9.707031 6.835938 9.5625 6.980469 C 9.269531 7.273438 9.269531 7.742188 9.5625 8.035156 L 13.597656 12.070312 L 9.5625 16.101562 C 9.269531 16.394531 9.269531 16.863281 9.5625 17.15625 C 9.855469 17.445312 10.324219 17.445312 10.613281 17.15625 L 15.175781 12.59375 C 15.183594 12.585938 15.191406 12.578125 15.203125 12.566406 C 15.210938 12.558594 15.21875 12.546875 15.226562 12.539062 C 15.234375 12.527344 15.242188 12.519531 15.25 12.507812 C 15.257812 12.5 15.265625 12.488281 15.269531 12.476562 C 15.277344 12.46875 15.285156 12.457031 15.289062 12.445312 C 15.296875 12.4375 15.304688 12.425781 15.308594 12.414062 C 15.3125 12.402344 15.320312 12.390625 15.324219 12.382812 C 15.328125 12.371094 15.335938 12.359375 15.339844 12.347656 C 15.34375 12.335938 15.347656 12.324219 15.351562 12.3125 C 15.355469 12.304688 15.359375 12.292969 15.363281 12.28125 C 15.367188 12.269531 15.371094 12.257812 15.371094 12.246094 C 15.375 12.234375 15.378906 12.222656 15.378906 12.210938 C 15.382812 12.199219 15.382812 12.1875 15.386719 12.175781 C 15.386719 12.164062 15.390625 12.152344 15.390625 12.140625 C 15.390625 12.128906 15.394531 12.117188 15.394531 12.105469 C 15.394531 12.09375 15.394531 12.082031 15.394531 12.070312 C 15.394531 12.066406 15.394531 12.066406 15.394531 12.066406 C 15.394531 12.054688 15.394531 12.042969 15.394531 12.03125 C 15.394531 12.019531 15.390625 12.007812 15.390625 11.996094 C 15.390625 11.984375 15.386719 11.972656 15.386719 11.960938 C 15.382812 11.949219 15.382812 11.9375 15.378906 11.925781 C 15.378906 11.914062 15.375 11.902344 15.371094 11.890625 C 15.371094 11.878906 15.367188 11.867188 15.363281 11.855469 C 15.359375 11.84375 15.355469 11.832031 15.351562 11.824219 C 15.347656 11.8125 15.34375 11.800781 15.339844 11.789062 C 15.335938 11.777344 15.328125 11.765625 15.324219 11.753906 C 15.320312 11.746094 15.3125 11.734375 15.308594 11.722656 C 15.304688 11.710938 15.296875 11.699219 15.289062 11.691406 C 15.285156 11.679688 15.277344 11.667969 15.269531 11.660156 C 15.265625 11.648438 15.257812 11.636719 15.25 11.628906 C 15.242188 11.617188 15.234375 11.609375 15.226562 11.597656 C 15.21875 11.589844 15.210938 11.578125 15.203125 11.570312 C 15.191406 11.558594 15.183594 11.550781 15.175781 11.542969 L 10.613281 6.980469 C 10.46875 6.835938 10.277344 6.761719 10.089844 6.761719 Z M 10.089844 6.761719 "/>
</g>
</svg>

<svg xmlns="http://www.w3.org/2000/svg" width="32" height="32" viewBox="0 0 24 24"><path d="M2.977 1.18A1.982 1.982 0 0 0 .992 3.164v17.863c0 1.098.887 1.985 1.985 1.985H20.84a1.982 1.982 0 0 0 1.984-1.985V3.164A1.982 1.982 0 0 0 20.84 1.18zm.496 1.488H20.34c.55 0 .996.441.996.992v16.871a.994.994 0 0 1-.996.992H3.473a.991.991 0 0 1-.993-.992V3.661c0-.552.442-.993.993-.993zm0 0" fill="#424242"/><path d="M10.09 6.762a.746.746 0 0 0-.527 1.273l4.035 4.035-4.036 4.032a.745.745 0 0 0 1.05 1.055l4.564-4.563.027-.028c.008-.007.016-.02.024-.027.007-.012.015-.02.023-.031a.085.085 0 0 0 .02-.031.085.085 0 0 0 .02-.032.085.085 0 0 0 .019-.03c.004-.013.011-.024.015-.032.004-.012.012-.024.016-.035l.012-.036.011-.03a.114.114 0 0 0 .008-.036c.004-.012.008-.023.008-.035.004-.012.004-.024.008-.035 0-.012.004-.024.004-.035 0-.012.004-.024.004-.036v-.035-.004-.035c0-.011-.004-.023-.004-.035 0-.012-.004-.023-.004-.035-.004-.012-.004-.024-.008-.035 0-.012-.004-.024-.008-.035a.114.114 0 0 0-.008-.036l-.011-.03-.012-.036c-.004-.012-.012-.023-.016-.035-.004-.008-.011-.02-.015-.031a.085.085 0 0 0-.02-.032.085.085 0 0 0-.02-.03.085.085 0 0 0-.019-.032l-.023-.031-.024-.028-.027-.027-4.563-4.563a.743.743 0 0 0-.523-.218zm0 0" fill="#78909c"/></svg>
